src/static/src/img/icons/organization.svg

<svg height="41" viewBox="0 0 41 41" width="41" xmlns="http://www.w3.org/2000/svg"><g fill="none" transform=""><circle cx="20.5" cy="20.5" fill="#0d652d" r="20.5"/><path d="m18 29h5v-2h-5zm-8-14v2h21v-2zm4 8h14v-2h-14z" fill="#fff"/></g></svg>

<?xml version="1.0" encoding="UTF-8"?>
<svg width="41px" height="41px" viewBox="0 0 41 41" version="1.1" xmlns="http://www.w3.org/2000/svg" xmlns:xlink="http://www.w3.org/1999/xlink">
    <!-- Generator: Sketch 51 (57462) - http://www.bohemiancoding.com/sketch -->
    <title>Group 17</title>
    <desc>Created with Sketch.</desc>
    <defs></defs>
    <g id="Homepage" stroke="none" stroke-width="1" fill="none" fill-rule="evenodd">
        <g id="v7c" transform="translate(-152.000000, -4264.000000)">
            <g id="Group-9-Copy" transform="translate(112.000000, 3980.000000)" fill-rule="nonzero">
                <g id="Group-7-Copy" transform="translate(0.000000, 244.000000)">
                    <g id="Group-4">
                        <g id="Group-9" transform="translate(40.000000, 40.000000)">
                            <g id="Group-17">
                                <circle id="Oval-3-Copy-9" fill="#0D652D" cx="20.5" cy="20.5" r="20.5"></circle>
                                <path d="M18,29 L23,29 L23,27 L18,27 L18,29 Z M10,15 L10,17 L31,17 L31,15 L10,15 Z M14,23 L28,23 L28,21 L14,21 L14,23 Z" id="Shape" fill="#FFFFFF"></path>
                            </g>
                        </g>
                    </g>
                </g>
            </g>
        </g>
    </g>
</svg>
